images/footer-dribble.svg

<svg width="24" height="24" viewBox="0 0 24 24" fill="none" xmlns="http://www.w3.org/2000/svg">
<path d="M12 0.571289C5.68798 0.571289 0.571411 5.68786 0.571411 11.9999C0.571411 18.3119 5.68798 23.4284 12 23.4284C18.312 23.4284 23.4286 18.3119 23.4286 11.9999C23.4286 5.68786 18.312 0.571289 12 0.571289ZM12 2.22729C14.4897 2.22729 16.7623 3.15872 18.488 4.69129C17.22 6.36386 15.2937 7.47757 13.3634 8.23129C12.2707 6.2412 11.0461 4.32645 9.6977 2.49986C10.4518 2.31809 11.2248 2.22659 12.0006 2.22729H12ZM7.84227 3.153C9.11655 5.05929 10.3508 6.82672 11.4783 8.82729C8.62684 9.56615 5.40455 10.0096 2.42798 10.017C3.05541 6.97243 5.10055 4.44443 7.84227 3.15357V3.153ZM19.572 5.82157C20.9841 7.54726 21.761 9.70548 21.7726 11.9353C19.512 11.4896 17.264 11.373 14.9748 11.6039C14.7177 10.9621 14.4057 10.3524 14.1068 9.69529C16.08 8.89929 18.1897 7.537 19.572 5.821V5.82157ZM12.272 10.3393C12.5166 10.8593 12.8 11.4113 13.0663 11.9753C9.88341 13.3787 6.4977 15.2541 4.74055 18.5421C3.0537 16.6754 2.15473 14.2283 2.23198 11.7136C5.64055 11.6976 8.98627 11.2713 12.272 10.3393ZM17.4366 13.0039C18.8587 13.0042 20.275 13.1866 21.6508 13.5467C21.4387 14.8703 20.9565 16.136 20.2343 17.2653C19.512 18.3945 18.5651 19.3631 17.4526 20.1107C16.928 17.725 16.428 15.4421 15.544 13.1404C16.1705 13.0491 16.8028 13.0033 17.436 13.0033L17.4366 13.0039ZM21.7017 13.181C21.6948 13.237 21.6886 13.2919 21.6806 13.3467C21.6886 13.2913 21.6954 13.2364 21.7017 13.181ZM13.736 13.5867C14.6366 15.9141 15.3434 18.4913 15.8177 20.9993C14.6104 21.5116 13.312 21.7747 12.0006 21.773C9.82789 21.7761 7.71671 21.0519 6.00341 19.7159C7.77312 16.845 10.5143 14.6724 13.7354 13.5873L13.736 13.5867Z" fill="#95E1D3"/>
</svg>

<svg width="24" height="24" fill="none" xmlns="http://www.w3.org/2000/svg"><path d="M12 .571C5.688.571.571 5.688.571 12S5.688 23.428 12 23.428 23.429 18.312 23.429 12C23.429 5.688 18.312.57 12 .57Zm0 1.656c2.49 0 4.762.932 6.488 2.464-1.268 1.673-3.194 2.787-5.125 3.54A50.893 50.893 0 0 0 9.698 2.5 9.79 9.79 0 0 1 12 2.227H12Zm-4.158.926c1.275 1.906 2.509 3.674 3.636 5.674-2.851.74-6.073 1.183-9.05 1.19a9.79 9.79 0 0 1 5.414-6.863v-.001Zm11.73 2.669a9.734 9.734 0 0 1 2.2 6.113 22.927 22.927 0 0 0-6.797-.331c-.257-.642-.57-1.252-.868-1.909 1.973-.796 4.083-2.158 5.465-3.874Zm-7.3 4.517c.245.52.528 1.072.794 1.636-3.183 1.404-6.568 3.28-8.325 6.567a9.739 9.739 0 0 1-2.509-6.828c3.409-.016 6.754-.443 10.04-1.375Zm5.165 2.665c1.422 0 2.838.183 4.214.543a9.772 9.772 0 0 1-4.198 6.564c-.525-2.386-1.025-4.669-1.909-6.97a13.12 13.12 0 0 1 1.892-.138Zm4.265.177-.021.166c.008-.056.014-.11.02-.166Zm-7.966.406c.9 2.327 1.607 4.904 2.082 7.412a9.74 9.74 0 0 1-3.817.774 9.73 9.73 0 0 1-5.998-2.057 14.533 14.533 0 0 1 7.732-6.129h.001Z" fill="#95E1D3"/></svg>
